data/playwrite-cu.svg

<svg width="105.78" height="30.688" viewBox="0 0 105.78 30.688" xmlns="http://www.w3.org/2000/svg"><path transform="translate(0 21.966) scale(.014 -.014)" d="m516 424q-19-1-27 10t-4 33q3 20 13 30t26 10q109 7 198.5 39.5t154 86 99.5 123.5 35 150q0 67-33.5 104t-95.5 37q-42 0-88-20.5t-92-59.5-89-93-80.5-122-66.5-146l-192-592q-4-14-16-21t-35-7q-22 0-33 7t-6 23l286 883q-27-29-58.5-54.5t-66.5-48.5-75-46q-21-11-34-4.5t-22 25.5q-8 18-4 31.5t23 23.5q71 36 126 77t98 90 76 108q10 17 21 23t33 6 32.5-7 5.5-23l-53-166q50 64 104.5 107.5t111.5 66 114 22.5q61 0 106-27t70-74.5 25-112.5q0-101-43-188.5t-121.5-153-186-105-236.5-45.5z"/><path transform="translate(13.202 21.966) scale(.014 -.014)" d="m-159-17q-19 0-25 11.5t-2 26 16 26 29 11.5q30 0 70.5 23t88.5 63.5 99.5 95 103 118.5 100 133 90 139 72.5 136 49 125 18 104q0 16 12.5 24t30 8 30.5-8 13-24q0-48-19.5-110.5t-54-134-81-146.5-101-150-113-144.5-117.5-129-115.5-104-106-69-87.5-24.5zm322 1q-40 0-60 16t-25.5 42 0 56.5 14.5 59.5l256 790q32 98 75 142t103 44q35 0 59-17t37.5-48 13.5-74q0-19-13-28t-30.5-9-30 9-12.5 28q0 18-4 30.5t-12 19-21 6.5q-14 0-27-10.5t-26.5-36-28.5-71.5l-266-822q-4-14-5.5-26t2.5-18.5 16-6.5 24 7 22.5 18.5 20.5 24.5q7 9 16.5 12t23.5-7q17-10 18-20.5t-4-20.5q-9-17-28.5-38t-46-36.5-61.5-15.5z"/><path transform="translate(18.718 21.966) scale(.014 -.014)" d="m169-17q-40 0-69 19t-44.5 54.5-15.5 84.5q0 45 13 96.5t39 101 65.5 90.5 91.5 65.5 117 24.5q32 0 64-9t60-25l1 4q6 17 16 21.5t28 4.5q31 0 39.5-9.5t1.5-29.5l-121-365q-4-14-5.5-26t3-18.5 15.5-6.5q13 0 24.5 7t22.5 18.5 21 24.5q7 9 16.5 12t22.5-7q17-10 18.5-20.5t-3.5-20.5q-10-17-29-38t-45.5-36.5-61.5-15.5q-32 0-50.5 11.5t-26 30-8 40.5 3.5 44q1 2 1.5 4.5t0.5 5.5q-37-50-73.5-80t-70-43.5-62.5-13.5zm-39 170q0-28 8-48.5t23-31 37-10.5q34 0 72 27.5t78.5 80 79.5 127.5l40 119q-29 14-55 18.5t-51 4.5q-48 0-85.5-19.5t-65-51.5-45.5-70.5-27-76.5-9-69z"/><path transform="translate(27.426 21.966) scale(.014 -.014)" d="m420-25q18 14 37.5 27t38.5 24.5 36 22 31 17.5q15 8 24.5 1.5t13.5-20 1-26.5-14-19q-19-11-41-25t-45-29-46-31-44-31zm-323-609q-58 0-92.5 34t-34.5 86q0 46 17.5 91t50.5 89.5 80.5 89 107.5 89.5q23 17 44.5 33t43.5 31 45 30l60 189q-25-35-52-61.5t-55.5-45-57-28-57.5-9.5q-51 0-80.5 23.5t-35.5 68 15 106.5l73 224q6 17 1 26.5t-19 9.5q-12 0-25-7.5t-27.5-24-34.5-43.5q-10-13-19-17.5t-26 1.5q-20 8-21.5 20.5t6.5 26.5q19 33 43 60t53.5 43 65.5 16q34 0 54-12t28.5-33 7-47.5-10.5-54.5l-65-200q-11-33-11-57.5t14-37 45-12.5q30 0 63 20t68 56.5 67.5 86.5 60.5 110l48 147q7 20 16.5 26t28.5 6q31 0 39.5-9.5t1.5-29.5l-274-841q-24-72-49-123.5t-55-83.5-66-47-80-15zm14 77q30 0 56.5 20.5t50.5 64 44 110.5l61 191q-12-9-24-18t-23.5-17-22.5-17q-48-40-84.5-76.5t-61-71-37-66.5-12.5-64q0-18 6.5-31t18.5-19 28-6z"/><path transform="translate(36.736 21.966) scale(.014 -.014)" d="m178-19q-47 0-74 18.5t-37 50-7 69.5 15 76l95 289q6 17 15 24.5t31 7.5q31 0 39-9.5t1-29.5l-95-293q-10-29-13.5-57.5t8-47 45.5-18.5q23 0 47.5 13t48.5 36.5 45 55.5 38 69l80 249q6 17 15 24.5t30 7.5q33 0 40-9.5t1-28.5l-80-255q-8-24-15.5-52.5t-8-53.5 12.5-40.5 46-15.5q36 0 68.5 20.5t59 54.5 45.5 75.5 30 85.5 11 83q0 14-1 28.5t-2.5 28.5-4.5 27q-4 19 0 31t14.5 18 26.5 6q18 0 28.5-11t16.5-37q3-13 5-27t3-28.5 1-30.5q0-48-14.5-103t-41.5-108-66-97-88-70-108-26q-45 0-72.5 15t-40 39.5-15.5 54.5q-23-34-50-58.5t-59-37.5-69-13z"/><path transform="translate(48.734 21.966) scale(.014 -.014)" d="m81-15q-16 0-29.5 7t-7.5 26l125 388q6 17 1 26.5t-19 9.5q-12 0-25-7.5t-27.5-24-34.5-43.5q-10-13-19-17.5t-26 1.5q-20 8-21.5 20.5t6.5 26.5q19 33 43 60t53.5 43 65.5 16q31 0 49.5-10t27-27 9.5-38-2-41l-10-32q24 36 48.5 64t48.5 47.5 45.5 29 40.5 9.5q15 0 23-7t7-31q0-25 3.5-42.5t11-26.5 20.5-9q23 0 50.5 15.5t67.5 46.5q10 7 20.5 3t18.5-14.5 9-22.5-8-19q-42-37-83-57.5t-82-20.5q-23 0-43.5 9t-34 31-16.5 59q-22-10-49-33.5t-55.5-59-55.5-82-51-101.5l-47-146q-4-13-14.5-19.5t-33.5-6.5z"/><path transform="translate(56.448 21.966) scale(.014 -.014)" d="m135-16q-62 0-81 44.5t8 126.5l107 328q6 20 15.5 26t29.5 6q31 0 39.5-9.5t1.5-29.5l-118-362q-9-27-5.5-40.5t20.5-13.5q12 0 23 6.5t21.5 18 21.5 25.5q7 9 16.5 12t22.5-7q17-10 18.5-20.5t-4.5-20.5q-15-26-36-46.5t-46-32-54-11.5zm141 685q-20 0-34.5 13t-14.5 38q0 27 18 51t55 24q20 0 34.5-12.5t14.5-38.5q0-27-17.5-51t-55.5-24z"/><path transform="translate(60.648 21.966) scale(.014 -.014)" d="m163-16q-49 0-72 23t-23.5 63.5 16.5 92.5l83 257h-77q-11 0-15 10t1 30q6 20 15.5 30t20.5 10h82l64 198q6 20 15.5 26t29.5 6q31 0 39.5-9.5t1.5-29.5l-62-191h126q11 0 15-9.5t-1-30.5q-6-19-16-29.5t-21-10.5h-129l-96-292q-11-35-5.5-51.5t25.5-16.5q26 0 51.5 19t45.5 46q8 9 18 11.5t25-7.5q16-10 17-20t-4-19q-12-21-35-45.5t-56.5-42.5-78.5-18z"/><path transform="translate(66.08 21.966) scale(.014 -.014)" d="m243-18q-36 0-66 12t-54 33-41 50-26 64-9 74q0 38 8.5 79.5t27 81.5 46.5 72.5 66 51.5 87 19q37 0 63.5-14.5t40.5-40 14-59.5q0-53-27.5-104.5t-72.5-98.5-99-85q-55-40-116.5-70t-120-47-107.5-17q-14 0-20.5 11.5t-4.5 26 13.5 26 32.5 11.5q40 0 88.5 16t99 43.5 95.5 61.5q39 29 72.5 63.5t55 71 21.5 71.5q0 26-11.5 40t-35.5 14q-31 0-55-22.5t-40-56.5-24.5-72-8.5-70q0-34 9-62.5t26-49.5 39.5-32.5 50.5-11.5q27 0 53 11t51 30 47 40q13 13 27.5 10.5t24.5-13.5q12-12 14-25t-11-27q-35-39-71.5-62t-74.5-33.5-77-10.5z"/><path transform="translate(76.496 21.966) scale(.014 -.014)" d="m515-19q-79 0-142 27t-107.5 78-68 123.5-23.5 163.5q0 82 18.5 169.5t56 172 91.5 159.5 124 133 156 90.5 185 32.5q68 0 122.5-15t97-44 71.5-72q8-13 4-22.5t-21-21.5q-14-11-24.5-10t-25.5 16q-38 40-96 62t-142 22q-75 0-143-28t-126.5-76.5-105.5-113-80-138.5-50.5-151.5-17.5-152.5q0-77 16-136.5t48.5-100 81.5-61.5 115-21q44 0 84.5 12.5t79 37 78 60 81.5 81.5q11 13 23.5 10t24.5-15q13-14 14.5-25.5t-10.5-25.5q-70-82-137.5-130t-130.5-69-121-21z"/><path transform="translate(89.628 21.966) scale(.014 -.014)" d="m451-16q-84 0-131 36t-54.5 106.5 25.5 172.5l209 645q17 52 10 77.5t-39 25.5q-22 0-46.5-13.5t-52.5-41.5-62-72q-15-18-29-20t-29 10q-15 11-16.5 24t10.5 29q44 60 86 97t82 54.5 76 17.5q76 0 101-53.5t-6-150.5l-202-624q-26-81-25-132.5t30.5-76 88.5-24.5q41 0 84.5 17t86 48 83 75 77.5 98.5 67 117.5l222 674q5 14 17 21t34 7q23 0 34-7t5-23l-296-896q-15-48-18.5-78t5.5-44.5 29-14.5q25 0 52 25.5t66 83.5q11 17 22.5 20t28.5-6 20-22-6-30q-20-33-42.5-61.5t-48-49.5-52-32.5-53.5-11.5q-44 0-70.5 20t-34 59.5 4.5 97.5q4 13 7.5 26t7.5 25q-37-52-80-93.5t-89-71-94-45.5-95-16z"/></svg>

<?xml version="1.0" encoding="utf-8" ?>
<svg baseProfile="tiny" height="100%" version="1.2" width="100%" xmlns="http://www.w3.org/2000/svg" xmlns:ev="http://www.w3.org/2001/xml-events" xmlns:xlink="http://www.w3.org/1999/xlink"><defs /><g><path d="M516 424Q497 423 489.0 434.0Q481 445 485 467Q488 487 498.0 497.0Q508 507 524 507Q633 514 722.5 546.5Q812 579 876.5 632.5Q941 686 976.0 756.0Q1011 826 1011 906Q1011 973 977.5 1010.0Q944 1047 882 1047Q840 1047 794.0 1026.5Q748 1006 702.0 967.0Q656 928 613.0 874.0Q570 820 532.5 752.0Q495 684 466 606L274 14Q270 0 258.0 -7.0Q246 -14 223 -14Q201 -14 190.0 -7.0Q179 0 184 16L470 899Q443 870 411.5 844.5Q380 819 345.0 796.0Q310 773 270 750Q249 739 236.0 745.5Q223 752 214 771Q206 789 210.0 802.5Q214 816 233 826Q304 862 359.0 903.0Q414 944 457.0 993.0Q500 1042 533 1101Q543 1118 554.0 1124.0Q565 1130 587 1130Q609 1130 619.5 1123.0Q630 1116 625 1100L572 934Q622 998 676.5 1041.5Q731 1085 788.0 1107.5Q845 1130 902 1130Q963 1130 1008.0 1103.0Q1053 1076 1078.0 1028.5Q1103 981 1103 916Q1103 815 1060.0 727.5Q1017 640 938.5 574.5Q860 509 752.5 469.5Q645 430 516 424Z" transform="translate(0.0, 72) scale(0.072, -0.072)" /><path d="M-159 -17Q-178 -17 -184.0 -5.5Q-190 6 -186.0 20.5Q-182 35 -170.0 46.5Q-158 58 -141 58Q-111 58 -70.5 81.0Q-30 104 18.0 144.5Q66 185 117.5 239.5Q169 294 220.5 358.0Q272 422 320.5 491.0Q369 560 410.5 630.0Q452 700 483.0 766.0Q514 832 532.0 891.0Q550 950 550 995Q550 1011 562.5 1019.0Q575 1027 592.5 1027.0Q610 1027 623.0 1019.0Q636 1011 636 995Q636 947 616.5 884.5Q597 822 562.5 750.5Q528 679 481.5 604.0Q435 529 380.5 454.0Q326 379 267.5 309.5Q209 240 150.0 180.5Q91 121 34.5 76.5Q-22 32 -71.5 7.5Q-121 -17 -159 -17ZM163 -16Q123 -16 103.0 0.0Q83 16 77.5 42.0Q72 68 77.5 98.5Q83 129 92 158L348 948Q380 1046 423.0 1090.0Q466 1134 526 1134Q561 1134 585.0 1117.0Q609 1100 622.5 1069.0Q636 1038 636 995Q636 976 623.0 967.0Q610 958 592.5 958.0Q575 958 562.5 967.0Q550 976 550 995Q550 1013 546.0 1025.5Q542 1038 534.0 1044.5Q526 1051 513 1051Q499 1051 486.0 1040.5Q473 1030 459.5 1004.5Q446 979 431 933L165 111Q161 97 159.5 85.0Q158 73 162.0 66.5Q166 60 178 60Q190 60 202.0 67.0Q214 74 224.5 85.5Q235 97 245 110Q252 119 261.5 122.0Q271 125 285 115Q302 105 303.0 94.5Q304 84 299 74Q290 57 270.5 36.0Q251 15 224.5 -0.5Q198 -16 163 -16Z" transform="translate(67.896, 72) scale(0.072, -0.072)" /><path d="M169 -17Q129 -17 100.0 2.0Q71 21 55.5 56.5Q40 92 40 141Q40 186 53.0 237.5Q66 289 92.0 338.5Q118 388 157.5 429.0Q197 470 249.0 494.5Q301 519 366 519Q398 519 430.0 510.0Q462 501 490 485L491 489Q497 506 507.0 510.5Q517 515 535 515Q566 515 574.5 505.5Q583 496 576 476L455 111Q451 97 449.5 85.0Q448 73 452.5 66.5Q457 60 468 60Q481 60 492.5 67.0Q504 74 515.0 85.5Q526 97 536 110Q543 119 552.5 122.0Q562 125 575 115Q592 105 593.5 94.5Q595 84 590 74Q580 57 561.0 36.0Q542 15 515.5 -0.5Q489 -16 454 -16Q422 -16 403.5 -4.5Q385 7 377.5 25.5Q370 44 369.5 66.0Q369 88 373 110Q374 112 374.5 114.5Q375 117 375 120Q338 70 301.5 40.0Q265 10 231.5 -3.5Q198 -17 169 -17ZM130 153Q130 125 138.0 104.5Q146 84 161.0 73.5Q176 63 198 63Q232 63 270.0 90.5Q308 118 348.5 170.5Q389 223 428 298L468 417Q439 431 413.0 435.5Q387 440 362 440Q314 440 276.5 420.5Q239 401 211.5 369.0Q184 337 166.0 298.5Q148 260 139.0 222.0Q130 184 130 153Z" transform="translate(96.264, 72) scale(0.072, -0.072)" /><path d="M420 -25Q438 -11 457.5 2.0Q477 15 496.0 26.5Q515 38 532.0 48.5Q549 59 563 66Q578 74 587.5 67.5Q597 61 601.0 47.5Q605 34 602.0 21.0Q599 8 588 2Q569 -9 547.0 -23.0Q525 -37 502.0 -52.0Q479 -67 456.0 -83.0Q433 -99 412 -114ZM97 -634Q39 -634 4.5 -600.0Q-30 -566 -30 -514Q-30 -468 -12.5 -423.0Q5 -378 38.0 -333.5Q71 -289 118.5 -244.5Q166 -200 226 -155Q249 -138 270.5 -122.0Q292 -106 314.0 -91.0Q336 -76 359 -61L419 128Q394 93 367.0 66.5Q340 40 311.5 21.5Q283 3 254.5 -6.5Q226 -16 197 -16Q146 -16 116.5 7.5Q87 31 81.0 75.5Q75 120 96 182L169 406Q175 423 170.0 432.5Q165 442 151 442Q139 442 126.0 434.5Q113 427 98.5 410.5Q84 394 64 367Q54 354 45.0 349.5Q36 345 19 351Q-1 359 -2.5 371.5Q-4 384 4 398Q23 431 47.0 458.0Q71 485 100.5 501.0Q130 517 166 517Q200 517 220.0 505.0Q240 493 248.5 472.0Q257 451 255.5 424.5Q254 398 245 370L180 170Q169 137 169.0 112.5Q169 88 183.0 75.5Q197 63 228 63Q258 63 291.0 83.0Q324 103 359.0 139.5Q394 176 426.5 226.0Q459 276 487 336L535 483Q542 503 551.5 509.0Q561 515 580 515Q611 515 619.5 505.5Q628 496 621 476L347 -365Q323 -437 298.0 -488.5Q273 -540 243.0 -572.0Q213 -604 177.0 -619.0Q141 -634 97 -634ZM111 -557Q141 -557 167.5 -536.5Q194 -516 218.0 -472.5Q242 -429 262 -362L323 -171Q311 -180 299.0 -189.0Q287 -198 275.5 -206.0Q264 -214 253 -223Q205 -263 168.5 -299.5Q132 -336 107.5 -370.5Q83 -405 70.5 -437.0Q58 -469 58 -501Q58 -519 64.5 -532.0Q71 -545 83.0 -551.0Q95 -557 111 -557Z" transform="translate(141.048, 72) scale(0.072, -0.072)" /><path d="M178 -19Q131 -19 104.0 -0.5Q77 18 67.0 49.5Q57 81 60.0 119.0Q63 157 75 195L170 484Q176 501 185.0 508.5Q194 516 216 516Q247 516 255.0 506.5Q263 497 256 477L161 184Q151 155 147.5 126.5Q144 98 155.5 79.5Q167 61 201 61Q224 61 248.5 74.0Q273 87 297.0 110.5Q321 134 342.0 166.0Q363 198 380 235L460 484Q466 501 475.0 508.5Q484 516 505 516Q538 516 545.0 506.5Q552 497 546 478L466 223Q458 199 450.5 170.5Q443 142 442.5 117.0Q442 92 455.0 76.5Q468 61 501 61Q537 61 569.5 81.5Q602 102 628.5 136.0Q655 170 674.0 211.5Q693 253 704.0 297.0Q715 341 715 380Q715 394 714.0 408.5Q713 423 711.5 437.0Q710 451 707 464Q703 483 707.0 495.0Q711 507 721.5 513.0Q732 519 748 519Q766 519 776.5 508.0Q787 497 793 471Q796 458 798.0 444.0Q800 430 801.0 415.5Q802 401 802 385Q802 337 787.5 282.0Q773 227 746.0 174.0Q719 121 680.0 77.0Q641 33 592.0 7.0Q543 -19 484 -19Q439 -19 411.5 -4.0Q384 11 371.5 35.5Q359 60 356 90Q333 56 306.0 31.5Q279 7 247.0 -6.0Q215 -19 178 -19Z" transform="translate(188.928, 72) scale(0.072, -0.072)" /><path d="M81 -15Q65 -15 51.5 -8.0Q38 -1 44 18L169 406Q175 423 170.0 432.5Q165 442 151 442Q139 442 126.0 434.5Q113 427 98.5 410.5Q84 394 64 367Q54 354 45.0 349.5Q36 345 19 351Q-1 359 -2.5 371.5Q-4 384 4 398Q23 431 47.0 458.0Q71 485 100.5 501.0Q130 517 166 517Q197 517 215.5 507.0Q234 497 242.5 480.0Q251 463 252.0 442.0Q253 421 250 401L240 369Q264 405 288.5 433.0Q313 461 337.0 480.5Q361 500 382.5 509.5Q404 519 423 519Q438 519 446.0 512.0Q454 505 453 481Q453 456 456.5 438.5Q460 421 467.5 412.0Q475 403 488 403Q511 403 538.5 418.5Q566 434 606 465Q616 472 626.5 468.0Q637 464 645.0 453.5Q653 443 654.0 431.0Q655 419 646 412Q604 375 563.0 354.5Q522 334 481 334Q458 334 437.5 343.0Q417 352 403.5 374.0Q390 396 387 433Q365 423 338.0 399.5Q311 376 282.5 340.5Q254 305 227.0 258.5Q200 212 176 157L129 11Q125 -2 114.5 -8.5Q104 -15 81 -15Z" transform="translate(250.632, 72) scale(0.072, -0.072)" /><path d="M135 -16Q73 -16 54.0 28.5Q35 73 62 155L169 483Q175 503 184.5 509.0Q194 515 214 515Q245 515 253.5 505.5Q262 496 255 476L137 114Q128 87 131.5 73.5Q135 60 152 60Q164 60 175.0 66.5Q186 73 196.5 84.5Q207 96 218 110Q225 119 234.5 122.0Q244 125 257 115Q274 105 275.5 94.5Q277 84 271 74Q256 48 235.0 27.5Q214 7 189.0 -4.5Q164 -16 135 -16ZM276 669Q256 669 241.5 682.0Q227 695 227 720Q227 747 245.0 771.0Q263 795 300 795Q320 795 334.5 782.5Q349 770 349 744Q349 717 331.5 693.0Q314 669 276 669Z" transform="translate(290.304, 72) scale(0.072, -0.072)" /><path d="M163 -16Q114 -16 91.0 7.0Q68 30 67.5 70.5Q67 111 84 163L167 420H90Q79 420 75.0 430.0Q71 440 76 460Q82 480 91.5 490.0Q101 500 112 500H194L258 698Q264 718 273.5 724.0Q283 730 303 730Q334 730 342.5 720.5Q351 711 344 691L282 500H408Q419 500 423.0 490.5Q427 481 422 460Q416 441 406.0 430.5Q396 420 385 420H256L160 128Q149 93 154.5 76.5Q160 60 180 60Q206 60 231.5 79.0Q257 98 277 125Q285 134 295.0 136.5Q305 139 320 129Q336 119 337.0 109.0Q338 99 333 90Q321 69 298.0 44.5Q275 20 241.5 2.0Q208 -16 163 -16Z" transform="translate(311.904, 72) scale(0.072, -0.072)" /><path d="M243 -18Q207 -18 177.0 -6.0Q147 6 123.0 27.0Q99 48 82.0 77.0Q65 106 56.0 141.0Q47 176 47 215Q47 253 55.5 294.5Q64 336 82.5 376.0Q101 416 129.0 448.5Q157 481 195.0 500.0Q233 519 282 519Q319 519 345.5 504.5Q372 490 386.0 464.5Q400 439 400 405Q400 352 372.5 300.5Q345 249 300.0 202.0Q255 155 201 117Q146 77 84.5 47.0Q23 17 -35.5 0.0Q-94 -17 -143 -17Q-157 -17 -163.5 -5.5Q-170 6 -168.0 20.5Q-166 35 -154.5 46.5Q-143 58 -122 58Q-82 58 -33.5 74.0Q15 90 65.5 117.5Q116 145 161 179Q200 208 233.5 242.5Q267 277 288.5 313.5Q310 350 310 385Q310 411 298.5 425.0Q287 439 263 439Q232 439 208.0 416.5Q184 394 168.0 360.0Q152 326 143.5 288.0Q135 250 135 218Q135 184 144.0 155.5Q153 127 170.0 106.0Q187 85 209.5 73.5Q232 62 260 62Q287 62 313.0 73.0Q339 84 364.0 103.0Q389 122 411 143Q424 156 438.5 153.5Q453 151 463 140Q475 128 477.0 115.0Q479 102 466 88Q431 49 394.5 26.0Q358 3 320.0 -7.5Q282 -18 243 -18Z" transform="translate(339.84, 72) scale(0.072, -0.072)" /><path d="M515 -19Q436 -19 373.0 8.0Q310 35 265.5 86.0Q221 137 197.5 209.5Q174 282 174 373Q174 455 192.5 542.5Q211 630 248.5 714.5Q286 799 340.0 874.0Q394 949 464.0 1007.0Q534 1065 620.0 1097.5Q706 1130 805 1130Q873 1130 927.5 1115.0Q982 1100 1024.5 1071.0Q1067 1042 1096 999Q1104 986 1100.0 976.5Q1096 967 1079 955Q1065 944 1054.5 945.0Q1044 946 1029 961Q991 1001 933.0 1023.0Q875 1045 791 1045Q716 1045 648.0 1017.0Q580 989 521.5 940.5Q463 892 416.0 827.5Q369 763 336.0 689.0Q303 615 285.5 537.5Q268 460 268 385Q268 308 284.0 248.5Q300 189 332.5 148.5Q365 108 414.0 87.0Q463 66 529 66Q573 66 613.5 78.5Q654 91 692.5 115.5Q731 140 770.5 175.5Q810 211 852 257Q863 270 875.5 267.0Q888 264 900 252Q913 238 914.5 226.5Q916 215 904 201Q834 119 766.5 71.0Q699 23 636.0 2.0Q573 -19 515 -19Z" transform="translate(393.408, 72) scale(0.072, -0.072)" /><path d="M451 -16Q367 -16 320.0 20.0Q273 56 265.5 126.5Q258 197 291 299L500 944Q517 996 510.0 1021.5Q503 1047 471 1047Q449 1047 424.5 1033.5Q400 1020 372.0 992.0Q344 964 310 920Q295 902 281.0 900.0Q267 898 252 910Q237 921 235.5 934.0Q234 947 246 963Q290 1023 332.0 1060.0Q374 1097 414.0 1114.5Q454 1132 490 1132Q566 1132 591.0 1078.5Q616 1025 585 928L383 304Q357 223 358.0 171.5Q359 120 388.5 95.5Q418 71 477 71Q518 71 561.5 88.0Q605 105 647.5 136.0Q690 167 730.5 211.0Q771 255 808.0 309.5Q845 364 875 427L1097 1101Q1102 1115 1114.0 1122.0Q1126 1129 1148 1129Q1171 1129 1182.0 1122.0Q1193 1115 1187 1099L891 203Q876 155 872.5 125.0Q869 95 878.0 80.5Q887 66 907 66Q932 66 959.0 91.5Q986 117 1025 175Q1036 192 1047.5 195.0Q1059 198 1076 189Q1093 180 1096.0 167.0Q1099 154 1090 137Q1070 104 1047.5 75.5Q1025 47 999.5 26.0Q974 5 947.5 -6.5Q921 -18 894 -18Q850 -18 823.5 2.0Q797 22 789.5 61.5Q782 101 794 159Q798 172 801.5 185.0Q805 198 809 210Q772 158 729.0 116.5Q686 75 640.0 45.5Q594 16 546.0 0.0Q498 -16 451 -16Z" transform="translate(460.944, 72) scale(0.072, -0.072)" /></g></svg>
